X:245
T:Mullingar Lea, The
R:reel
Z:transcribed by Dave Marshall
M:C|
K:Gmix
|: BGGA GFDE | F2AF cFAF | BGGA GFDE | FDdc BGG2 :|
| ~g3d Bcde | ~f3c ABcd | ~g3d BcdB | dgga bga^f |
~g3d Bcde | ~f3c ABcd | e~d3 D3E | FDdc BGG2 |
